;FLAVOR:Marlin
;TIME:11756
;Filament used: 13.7092m
;Layer height: 0.2
;Generated with Cura_SteamEngine 3.0.3
M190 S60
M104 S210
M109 S210
M82 ; absolute extrusion mode
G28 ;Home
G1 Z15.0 F6000 ;Move the platform down 15mm
;Prime the extruder
G92 E0
G1 F200 E3
G92 E0
;LAYER_COUNT:73
;LAYER:0
M107
G0 F1500 X40.772 Y18.4 Z0.3
;TYPE:WALL-INNER
G1 X41.038 Y18.4 E0.01342
G1 X41.039 Y18.4 E0.01347
G1 X79.629 Y18.403 E1.96093
G1 X79.691 Y18.412 E1.96409
G1 X79.774 Y18.456 E1.96883
G1 X79.818 Y18.519 E1.97271
G1 X79.837 Y18.606 E1.9772
G1 X79.836 Y101.425 E6.15669
G1 X79.817 Y101.483 E6.15977
G1 X79.771 Y101.547 E6.16375
G1 X79.741 Y101.568 E6.1656
G1 X79.696 Y101.587 E6.16806
G1 X79.654 Y101.596 E6.17023
G1 X41.039 Y101.6 E8.11895
G1 X41.038 Y101.6 E8.119
G1 X40.772 Y101.6 E8.13242
G1 X40.847 Y101.344 E8.14049
G1 X41.84 Y97.997 E8.31668
G1 X43.631 Y90.521 E8.70463
G1 X45.033 Y82.966 E9.09241
G1 X46.037 Y75.346 E9.48027
G1 X46.641 Y67.683 E9.86819
G1 X46.84 Y60 E10.25604
G1 X46.641 Y52.317 E10.6439
G1 X46.037 Y44.654 E11.03181
G1 X45.033 Y37.034 E11.41968
G1 X43.631 Y29.479 E11.80746
G1 X41.84 Y22.003 E12.19541
G1 X40.847 Y18.656 E12.3716
G1 X40.772 Y18.4 E12.37967
G0 X40.503 Y18
G1 X79.661 Y18.003 E14.35579
G1 X79.795 Y18.023 E14.36263
G1 X79.92 Y18.074 E14.36944
G1 X80.026 Y18.142 E14.37579
G1 X80.094 Y18.21 E14.38065
G1 X80.176 Y18.336 E14.38823
G1 X80.215 Y18.435 E14.3936
G1 X80.237 Y18.579 E14.40096
G1 X80.236 Y101.451 E18.58312
G1 X80.225 Y101.522 E18.58674
G1 X80.185 Y101.646 E18.59332
G1 X80.12 Y101.758 E18.59985
G1 X80.035 Y101.849 E18.60614
G1 X79.94 Y101.917 E18.61203
G1 X79.817 Y101.971 E18.61881
G1 X79.693 Y101.996 E18.62519
G1 X40.503 Y102 E20.60293
G1 X40.502 Y102 E20.60298
G1 X40.236 Y102 E20.6164
G1 X40.311 Y101.744 E20.62448
G1 X41.453 Y97.893 E20.82718
G1 X43.24 Y90.438 E21.21406
G1 X44.638 Y82.903 E21.60081
G1 X45.639 Y75.304 E21.9876
G1 X46.241 Y67.662 E22.37445
G1 X46.44 Y60 E22.76125
G1 X46.241 Y52.338 E23.14805
G1 X45.639 Y44.696 E23.5349
G1 X44.638 Y37.097 E23.92169
G1 X43.24 Y29.562 E24.30844
G1 X41.453 Y22.107 E24.69532
G1 X40.311 Y18.256 E24.89802
G1 X40.236 Y18 E24.91149
G1 X40.502 Y18 E24.91953
G1 X40.503 Y18 E24.91959
G0 X39.967 Y17.6
G1 X79.686 Y17.603 E26.92402
G1 X79.797 Y17.615 E26.92965
G1 X79.908 Y17.638 E26.93537
G1 X80.105 Y17.717 E26.94608
G1 X80.268 Y17.823 E26.95589
G1 X80.347 Y17.893 E26.96122
G1 X80.417 Y17.972 E26.96655
G1 X80.526 Y18.14 E26.97665
G1 X80.574 Y18.245 E26.98248
G1 X80.602 Y18.332 E26.98709
G1 X80.625 Y18.443 E26.99281
G1 X80.637 Y18.554 E26.99845
G1 X80.64 Y101.389 E31.17874
G1 X80.634 Y101.493 E31.184
G1 X80.615 Y101.617 E31.19033
G1 X80.554 Y101.803 E31.20021
G1 X80.503 Y101.901 E31.20578
G1 X80.443 Y101.995 E31.21141
G1 X80.387 Y102.063 E31.21586
G1 X80.303 Y102.147 E31.22185
G1 X80.234 Y102.203 E31.22634
G1 X80.139 Y102.265 E31.23206
G1 X80.049 Y102.31 E31.23714
G1 X79.944 Y102.351 E31.24283
G1 X79.852 Y102.376 E31.24764
G1 X79.735 Y102.394 E31.25361
G1 X79.627 Y102.4 E31.25907
G1 X39.967 Y102.4 E33.26052
G1 X39.966 Y102.4 E33.26057
G1 X39.7 Y102.4 E33.274
G1 X39.775 Y102.144 E33.28207
G1 X41.066 Y97.789 E33.5113
G1 X42.849 Y90.355 E33.8971
G1 X44.243 Y82.84 E34.28282
G1 X45.241 Y75.262 E34.66854
G1 X45.841 Y67.641 E35.05433
G1 X46.04 Y60 E35.44007
G1 X45.841 Y52.359 E35.8258
G1 X45.241 Y44.738 E36.21159
G1 X44.243 Y37.16 E36.59732
G1 X42.849 Y29.645 E36.98303
G1 X41.066 Y22.211 E37.36883
G1 X39.775 Y17.856 E37.59806
G1 X39.7 Y17.6 E37.61152
G1 X39.966 Y17.6 E37.61957
G1 X39.967 Y17.6 E37.61962
G0 X39.431 Y17.2
G1 X79.71 Y17.203 E39.65231
G1 X79.859 Y17.219 E39.65988
G1 X80.009 Y17.25 E39.66761
G1 X80.137 Y17.292 E39.67441
G1 X80.281 Y17.357 E39.68238
G1 X80.404 Y17.428 E39.68955
G1 X80.523 Y17.514 E39.69696
G1 X80.63 Y17.61 E39.70421
G1 X80.726 Y17.717 E39.71146
G1 X80.812 Y17.836 E39.71887
G1 X80.882 Y17.957 E39.72593
G1 X80.948 Y18.103 E39.73401
G1 X80.99 Y18.231 E39.74081
G1 X81.021 Y18.381 E39.74854
G1 X81.037 Y18.53 E39.7561
G1 X81.04 Y101.389 E43.93761
G1 X81.032 Y101.539 E43.94519
G1 X81.006 Y101.702 E43.95352
G1 X80.973 Y101.827 E43.96004
G1 X80.919 Y101.969 E43.96771
G1 X80.854 Y102.094 E43.97482
G1 X80.764 Y102.234 E43.98322
G1 X80.682 Y102.334 E43.98975
G1 X80.574 Y102.442 E43.99745
G1 X80.474 Y102.524 E44.00398
G1 X80.331 Y102.616 E44.01256
G1 X80.213 Y102.676 E44.01924
G1 X80.074 Y102.73 E44.02677
G1 X79.932 Y102.768 E44.03419
G1 X79.779 Y102.792 E44.042
G1 X79.629 Y102.8 E44.04958
G1 X39.431 Y102.8 E46.07819
G1 X39.43 Y102.8 E46.07824
G1 X39.164 Y102.8 E46.09166
G1 X39.239 Y102.544 E46.09973
G1 X40.679 Y97.685 E46.35548
G1 X42.458 Y90.272 E46.74021
G1 X43.848 Y82.777 E47.12489
G1 X44.843 Y75.22 E47.50955
G1 X45.441 Y67.62 E47.89427
G1 X45.64 Y60 E48.27895
G1 X45.441 Y52.38 E48.66363
G1 X44.843 Y44.78 E49.04835
G1 X43.848 Y37.223 E49.43301
G1 X42.458 Y29.728 E49.81769
G1 X40.679 Y22.315 E50.20241
G1 X39.239 Y17.456 E50.45817
G1 X39.164 Y17.2 E50.47163
G1 X39.43 Y17.2 E50.47968
G1 X39.431 Y17.2 E50.47973
G0 X39.431 Y17.3
G0 X40.717 Y22.305
G0 X42.497 Y29.72
G0 X43.887 Y37.217
G0 X44.882 Y44.776
G0 X45.48 Y52.378
G0 X45.68 Y60
G0 X45.48 Y67.622
G0 X44.882 Y75.224
G0 X43.887 Y82.783
G0 X42.497 Y90.28
G0 X40.771 Y97.722
G0 X40.292 Y97.581
;TYPE:WALL-OUTER
G1 X42.067 Y90.189 E50.86337
G1 X43.453 Y82.714 E51.24703
G1 X44.445 Y75.178 E51.63062
G1 X45.041 Y67.599 E52.01427
G1 X45.24 Y60 E52.39789
G1 X45.041 Y52.401 E52.78151
G1 X44.445 Y44.822 E53.16517
G1 X43.453 Y37.286 E53.54875
G1 X42.067 Y29.811 E53.93241
G1 X40.292 Y22.419 E54.31605
G1 X38.703 Y17.056 E54.59833
G1 X38.628 Y16.8 E54.61179
G1 X38.894 Y16.8 E54.61984
G1 X38.895 Y16.8 E54.61989
G1 X79.733 Y16.803 E56.68079
G1 X79.921 Y16.823 E56.69033
G1 X80.11 Y16.862 E56.70007
G1 X80.283 Y16.919 E56.70926
G1 X80.459 Y16.998 E56.719
G1 X80.62 Y17.091 E56.72838
G1 X80.774 Y17.203 E56.73799
G1 X80.913 Y17.327 E56.74739
G1 X81.037 Y17.466 E56.75679
G1 X81.149 Y17.62 E56.7664
G1 X81.242 Y17.781 E56.77579
G1 X81.321 Y17.957 E56.78552
G1 X81.378 Y18.13 E56.79471
G1 X81.417 Y18.319 E56.80445
G1 X81.437 Y18.507 E56.81399
G1 X81.44 Y101.389 E60.99666
G1 X81.43 Y101.587 E61.00666
G1 X81.399 Y101.779 E61.01648
G1 X81.352 Y101.955 E61.02567
G1 X81.284 Y102.134 E61.03534
G1 X81.2 Y102.297 E61.04459
G1 X81.093 Y102.462 E61.05451
G1 X80.975 Y102.607 E61.06395
G1 X80.847 Y102.735 E61.07308
G1 X80.702 Y102.853 E61.08252
G1 X80.537 Y102.96 E61.09244
G1 X80.376 Y103.042 E61.10156
G1 X80.192 Y103.113 E61.11151
G1 X80.019 Y103.159 E61.12055
G1 X79.827 Y103.19 E61.13036
G1 X79.629 Y103.2 E61.14037
G1 X38.895 Y103.2 E63.19602
G1 X38.894 Y103.2 E63.19607
G1 X38.628 Y103.2 E63.20949
G1 X38.703 Y102.944 E63.21757
G1 X40.292 Y97.581 E63.49984
G0 X40.338 Y97.387
G0 X40.825 Y97.504
G0 X42.226 Y98.101
;TYPE:WALL-INNER
G1 X44.023 Y90.605 E63.88885
G1 X45.429 Y83.028 E64.27775
G1 X46.435 Y75.388 E64.66663
G1 X47.041 Y67.703 E65.05566
G1 X47.24 Y60 E65.44453
G1 X47.041 Y52.297 E65.83339
G1 X46.435 Y44.612 E66.22242
G1 X45.429 Y36.972 E66.6113
G1 X44.023 Y29.395 E67.00021
G1 X42.226 Y21.899 E67.38921
G1 X41.308 Y18.8 E67.55232
G1 X79.437 Y18.803 E69.47651
G1 X79.436 Y101.196 E73.6345
G1 X41.308 Y101.2 E75.55864
G1 X42.226 Y98.101 E75.72175
G0 X41.565 Y100.962
G0 X41.593 Y100.99
G1 X41.94 Y100.771 E75.74132
G0 X42.753 Y101.018
;TYPE:SKIN
G1 X41.823 Y100.089 E75.80766
G1 X41.753 Y100.019
G0 X41.953 Y99.653
G1 X43.318 Y101.018 E75.90508
G1 X43.388 Y101.088
G0 X43.884 Y101.018
G1 X42.082 Y99.216 E76.03368
G1 X42.012 Y99.146
G0 X42.211 Y98.779
G1 X44.45 Y101.018 E76.19348
G1 X44.52 Y101.088
G0 X45.015 Y101.018
G1 X42.34 Y98.343 E76.38439
G1 X42.27 Y98.273
G0 X42.458 Y97.896
G1 X45.581 Y101.018 E76.60724
G1 X45.651 Y101.088
G0 X46.147 Y101.018
G1 X42.568 Y97.44 E76.86263
G1 X42.498 Y97.37
G0 X42.678 Y96.983
G1 X46.712 Y101.018 E77.15057
G1 X46.782 Y101.088
G0 X47.278 Y101.018
G1 X42.787 Y96.527 E77.47108
G1 X42.717 Y96.457
G0 X42.896 Y96.071
G1 X47.843 Y101.017 E77.82411
G1 X47.913 Y101.087
G0 X48.409 Y101.017
G1 X43.006 Y95.614 E78.20971
G1 X42.936 Y95.544
G0 X43.115 Y95.158
G1 X48.974 Y101.017 E78.62786
G1 X49.044 Y101.087
G0 X49.54 Y101.017
G1 X43.225 Y94.702 E79.07856
G1 X43.155 Y94.632
G0 X43.335 Y94.246
G1 X50.106 Y101.017 E79.56179
G1 X50.176 Y101.087
G0 X50.671 Y101.017
G1 X43.443 Y93.789 E80.07765
G1 X43.373 Y93.719
G0 X43.553 Y93.333
G1 X51.237 Y101.017 E80.62604
G1 X51.307 Y101.087
G0 X51.803 Y101.017
G1 X43.663 Y92.877 E81.20699
G1 X43.593 Y92.807
G0 X43.772 Y92.421
G1 X52.369 Y101.017 E81.82051
G1 X52.439 Y101.087
G0 X52.934 Y101.017
G1 X43.882 Y91.965 E82.46654
G1 X43.812 Y91.895
G0 X43.991 Y91.508
G1 X53.5 Y101.017 E83.14518
G1 X53.57 Y101.087
G0 X54.066 Y101.017
G1 X44.1 Y91.052 E83.85641
G1 X44.03 Y90.982
G0 X44.207 Y90.593
G1 X54.631 Y101.017 E84.60035
G1 X54.701 Y101.087
G0 X55.196 Y101.017
G1 X44.295 Y90.116 E85.37834
G1 X44.225 Y90.046
G0 X44.384 Y89.639
G1 X55.762 Y101.017 E86.19038
G1 X55.832 Y101.087
G0 X56.328 Y101.017
G1 X44.473 Y89.162 E87.03645
G1 X44.403 Y89.092
G0 X44.561 Y88.685
G1 X56.893 Y101.017 E87.91657
G1 X56.963 Y101.087
G0 X57.459 Y101.017
G1 X44.65 Y88.208 E88.83073
G1 X44.58 Y88.138
G0 X44.738 Y87.73
G1 X58.025 Y101.017 E89.77901
G1 X58.095 Y101.087
G0 X58.59 Y101.017
G1 X44.827 Y87.253 E90.76129
G1 X44.757 Y87.183
G0 X44.916 Y86.776
G1 X59.156 Y101.017 E91.77762
G1 X59.226 Y101.087
G0 X59.722 Y101.017
G1 X45.004 Y86.299 E92.82802
G1 X44.934 Y86.229
G0 X45.092 Y85.822
G1 X60.287 Y101.017 E93.91247
G1 X60.357 Y101.087
G0 X60.852 Y101.016
G1 X45.181 Y85.344 E95.03093
G1 X45.111 Y85.274
G0 X45.269 Y84.867
G1 X61.418 Y101.016 E96.18346
G1 X61.488 Y101.086
G0 X61.984 Y101.016
G1 X45.358 Y84.391 E97.37
G1 X45.288 Y84.321
G0 X45.447 Y83.913
G1 X62.549 Y101.016 E98.59058
G1 X62.619 Y101.086
G0 X63.115 Y101.016
G1 X45.535 Y83.436 E99.84525
G1 X45.465 Y83.366
G0 X45.619 Y82.954
G1 X63.681 Y101.016 E101.13431
G1 X63.751 Y101.086
G0 X64.247 Y101.016
G1 X45.685 Y82.455 E102.45902
G1 X45.615 Y82.385
G0 X45.751 Y81.955
G1 X64.812 Y101.016 E103.81938
G1 X64.882 Y101.086
G0 X65.378 Y101.016
G1 X45.816 Y81.455 E105.21546
G1 X45.746 Y81.385
G0 X45.882 Y80.955
G1 X65.944 Y101.016 E106.64722
G1 X66.014 Y101.086
G0 X66.509 Y101.016
G1 X45.948 Y80.455 E108.11463
G1 X45.878 Y80.385
G0 X46.014 Y79.955
G1 X67.074 Y101.015 E109.61766
G1 X67.144 Y101.085
G0 X67.64 Y101.015
G1 X46.08 Y79.455 E111.15637
G1 X46.01 Y79.385
G0 X46.145 Y78.955
G1 X68.206 Y101.015 E112.7308
G1 X68.276 Y101.085
G0 X68.771 Y101.015
G1 X46.212 Y78.456 E114.3408
G1 X46.142 Y78.386
G0 X46.278 Y77.956
G1 X69.337 Y101.015 E115.98649
G1 X69.407 Y101.085
G0 X69.903 Y101.015
G1 X46.343 Y77.456 E117.66791
G1 X46.273 Y77.386
G0 X46.409 Y76.956
G1 X70.468 Y101.015 E119.38497
G1 X70.538 Y101.085
G0 X71.034 Y101.015
G1 X46.475 Y76.456 E121.13771
G1 X46.405 Y76.386
G0 X46.541 Y75.956
G1 X71.6 Y101.015 E122.92614
G1 X71.67 Y101.085
G0 X72.165 Y101.015
G1 X46.606 Y75.456 E124.75025
G1 X46.536 Y75.386
G0 X46.65 Y74.934
G1 X72.731 Y101.015 E126.61162
G1 X72.801 Y101.085
G0 X73.296 Y101.015
G1 X46.692 Y74.41 E128.51035
G1 X46.622 Y74.34
G0 X46.733 Y73.886
G1 X73.862 Y101.015 E130.44651
G1 X73.932 Y101.085
G0 X74.427 Y101.015
G1 X46.775 Y73.362 E132.42003
G1 X46.705 Y73.292
G0 X46.816 Y72.837
G1 X74.993 Y101.015 E134.43102
G1 X75.063 Y101.085
G0 X75.559 Y101.015
G1 X46.857 Y72.313 E136.47945
G1 X46.787 Y72.243
G0 X46.898 Y71.789
G1 X76.124 Y101.015 E138.56527
G1 X76.194 Y101.085
G0 X76.69 Y101.015
G1 X46.94 Y71.265 E140.68849
G1 X46.87 Y71.195
G0 X46.981 Y70.74
G1 X77.256 Y101.015 E142.84918
G1 X77.326 Y101.085
G0 X77.822 Y101.015
G1 X47.023 Y70.216 E145.04726
G1 X46.953 Y70.146
G0 X47.064 Y69.691
G1 X78.387 Y101.015 E147.28278
G1 X78.457 Y101.085
G0 X78.953 Y101.015
G1 X47.106 Y69.167 E149.5557
G1 X47.036 Y69.097
G0 X47.147 Y68.643
G1 X79.256 Y100.752 E151.84727
G1 X79.326 Y100.822
G0 X79.256 Y100.187
G1 X47.188 Y68.119 E154.13593
G1 X47.118 Y68.049
G0 X47.224 Y67.588
G1 X79.256 Y99.621 E156.42204
G1 X79.326 Y99.691
G0 X79.256 Y99.055
G1 X47.238 Y67.037 E158.70713
G1 X47.168 Y66.967
G0 X47.252 Y66.485
G1 X79.256 Y98.49 E160.99125
G1 X79.326 Y98.56
G0 X79.256 Y97.924
G1 X47.266 Y65.934 E163.27433
G1 X47.196 Y65.864
G0 X47.28 Y65.382
G1 X79.256 Y97.358 E165.55642
G1 X79.326 Y97.428
G0 X79.256 Y96.793
G1 X47.294 Y64.831 E167.83751
G1 X47.224 Y64.761
G0 X47.308 Y64.279
G1 X79.256 Y96.227 E170.11759
G1 X79.326 Y96.297
G0 X79.256 Y95.661
G1 X47.323 Y63.728 E172.39661
G1 X47.253 Y63.658
G0 X47.337 Y63.177
G1 X79.256 Y95.095 E174.67459
G1 X79.326 Y95.165
G0 X79.256 Y94.53
G1 X47.352 Y62.625 E176.95158
G1 X47.282 Y62.555
G0 X47.366 Y62.074
G1 X79.256 Y93.964 E179.22752
G1 X79.326 Y94.034
G0 X79.256 Y93.398
G1 X47.38 Y61.522 E181.50247
G1 X47.31 Y61.452
G0 X47.394 Y60.97
G1 X79.256 Y92.833 E183.77646
G1 X79.326 Y92.903
G0 X79.256 Y92.267
G1 X47.408 Y60.419 E186.04941
G1 X47.338 Y60.349
G0 X47.416 Y59.861
G1 X79.256 Y91.701 E188.32179
G1 X79.326 Y91.771
G0 X79.256 Y91.136
G1 X47.4 Y59.28 E190.59531
G1 X47.33 Y59.21
G0 X47.386 Y58.699
G1 X79.256 Y90.57 E192.86987
G1 X79.326 Y90.64
G0 X79.256 Y90.004
G1 X47.371 Y58.119 E195.14546
G1 X47.301 Y58.049
G0 X47.356 Y57.538
G1 X79.256 Y89.439 E197.42216
G1 X79.326 Y89.509
G0 X79.256 Y88.873
G1 X47.341 Y56.958 E199.69989
G1 X47.271 Y56.888
G0 X47.326 Y56.377
G1 X79.256 Y88.307 E201.97869
G1 X79.326 Y88.377
G0 X79.256 Y87.742
G1 X47.311 Y55.796 E204.2586
G1 X47.241 Y55.726
G0 X47.296 Y55.215
G1 X79.256 Y87.176 E206.53958
G1 X79.326 Y87.246
G0 X79.256 Y86.61
G1 X47.281 Y54.635 E208.8216
G1 X47.211 Y54.565
G0 X47.266 Y54.054
G1 X79.256 Y86.044 E211.10468
G1 X79.326 Y86.114
G0 X79.256 Y85.479
G1 X47.251 Y53.474 E213.38884
G1 X47.181 Y53.404
G0 X47.236 Y52.893
G1 X79.256 Y84.913 E215.67406
G1 X79.326 Y84.983
G0 X79.256 Y84.347
G1 X47.221 Y52.312 E217.96036
G1 X47.151 Y52.242
G0 X47.174 Y51.7
G1 X79.256 Y83.782 E220.25001
G1 X79.326 Y83.852
G0 X79.256 Y83.216
G1 X47.125 Y51.085 E222.54316
G1 X47.055 Y51.015
G0 X47.077 Y50.471
G1 X79.256 Y82.65 E224.83973
G1 X79.326 Y82.72
G0 X79.256 Y82.085
G1 X47.028 Y49.857 E227.1398
G1 X46.958 Y49.787
G0 X46.98 Y49.243
G1 X79.256 Y81.519 E229.4433
G1 X79.326 Y81.589
G0 X79.256 Y80.953
G1 X46.932 Y48.629 E231.75022
G1 X46.862 Y48.559
G0 X46.884 Y48.015
G1 X79.256 Y80.388 E234.06061
G1 X79.326 Y80.458
G0 X79.256 Y79.822
G1 X46.835 Y47.4 E236.37449
G1 X46.765 Y47.33
G0 X46.786 Y46.786
G1 X79.256 Y79.256 E238.69183
G1 X79.326 Y79.326
G0 X79.256 Y78.691
G1 X46.738 Y46.172 E241.01263
G1 X46.668 Y46.102
G0 X46.689 Y45.558
G1 X79.256 Y78.125 E243.3369
G1 X79.326 Y78.195
G0 X79.256 Y77.559
G1 X46.641 Y44.944 E245.66459
G1 X46.571 Y44.874
G0 X46.577 Y44.314
G1 X79.256 Y76.994 E247.99688
G1 X79.326 Y77.064
G0 X79.256 Y76.428
G1 X46.49 Y43.662 E250.33535
G1 X46.42 Y43.592
G0 X46.405 Y43.011
G1 X79.256 Y75.862 E252.67988
G1 X79.326 Y75.932
G0 X79.256 Y75.296
G1 X46.319 Y42.359 E255.03055
G1 X46.249 Y42.289
G0 X46.233 Y41.707
G1 X79.256 Y74.731 E257.3874
G1 X79.326 Y74.801
G0 X79.256 Y74.165
G1 X46.147 Y41.056 E259.75035
G1 X46.077 Y40.986
G0 X46.061 Y40.404
G1 X79.256 Y73.599 E262.11943
G1 X79.326 Y73.669
G0 X79.256 Y73.034
G1 X45.976 Y39.753 E264.49462
G1 X45.906 Y39.683
G0 X45.89 Y39.102
G1 X79.256 Y72.468 E266.8759
G1 X79.326 Y72.538
G0 X79.256 Y71.902
G1 X45.804 Y38.45 E269.26333
G1 X45.734 Y38.38
G0 X45.718 Y37.799
G1 X79.256 Y71.337 E271.65689
G1 X79.326 Y71.407
G0 X79.256 Y70.771
G1 X45.632 Y37.147 E274.0566
G1 X45.562 Y37.077
G0 X45.517 Y36.466
G1 X79.256 Y70.205 E276.46451
G1 X79.326 Y70.275
G0 X79.256 Y69.64
G1 X45.388 Y35.771 E278.88166
G1 X45.318 Y35.701
G0 X45.259 Y35.076
G1 X79.256 Y69.074 E281.30801
G1 X79.326 Y69.144
G0 X79.256 Y68.508
G1 X45.13 Y34.382 E283.74354
G1 X45.06 Y34.312
G0 X45.001 Y33.687
G1 X79.256 Y67.943 E286.18831
G1 X79.326 Y68.013
G0 X79.256 Y67.377
G1 X44.872 Y32.992 E288.64229
G1 X44.802 Y32.922
G0 X44.743 Y32.298
G1 X79.256 Y66.811 E291.10544
G1 X79.326 Y66.881
G0 X79.256 Y66.246
G1 X44.614 Y31.603 E293.57783
G1 X44.544 Y31.533
G0 X44.485 Y30.909
G1 X79.256 Y65.68 E296.05939
G1 X79.326 Y65.75
G0 X79.256 Y65.114
G1 X44.356 Y30.214 E298.55016
G1 X44.286 Y30.144
